X: 3018
T: MISS GRAHAM
Q:"Reel."
R: Reel.
%R:reel
B: James Kerr "Merry Melodies" v.3 p.5 #18
Z: 2016 John Chambers <jc:trillian.mit.edu>
M: C
L: 1/8
K: D
F |\
D2FD A2FA | BdAF AFEF |\
D2FD A2FA | BdAF E3 ::\
A |\
dfef d2(Ad) | BdAd fede |\
[1 faef d2(Ad) | BdAF E3 :|\
[2 faef deBd | AFdF E3 |]

%%sep 1 1 500
%%sep 1 1 500

